packages/core/src/svgs/tokens/branded/CLH.svg

<svg width="24" height="24" viewBox="0 0 24 24" fill="none" xmlns="http://www.w3.org/2000/svg">
<path d="M11.2775 21.6567C8.74507 21.4683 6.37267 20.3464 4.62006 18.5086C2.90697 16.7141 1.96652 14.3189 2.00091 11.8382C2.05308 9.35742 3.07425 6.99551 4.84585 5.25808C6.63281 3.49049 9.38091 2.43895 11.9421 2.32283C12.0424 2.32083 12.1394 2.35784 12.213 2.42605C12.2475 2.45958 12.2751 2.49968 12.2939 2.544C12.3127 2.58831 12.3225 2.63594 12.3226 2.68409V5.84513C12.3226 5.929 12.2839 6.01932 12.2195 6.08382C12.1549 6.14833 12.0646 6.18703 11.9678 6.19349C10.7873 6.25801 9.32296 6.58055 8.36814 7.25147C7.602 7.78492 6.9753 8.49476 6.54081 9.32099C6.10633 10.1474 5.87681 11.0659 5.87157 11.9994C5.87157 15.2637 8.77456 17.8313 12.0001 17.8055C15.0837 17.7796 17.9351 15.4573 18.1287 12.3414C18.1287 12.2511 18.1739 12.1673 18.2383 12.1027C18.3029 12.0381 18.3997 11.9994 18.4964 11.9994H21.6186C21.7199 11.9991 21.8172 12.0386 21.8896 12.1092C21.9242 12.1427 21.9518 12.1828 21.9706 12.227C21.9894 12.2714 21.9992 12.319 21.9993 12.3672C21.9477 13.6575 21.6316 14.9282 21.064 16.1088C20.4892 17.2867 19.6817 18.3357 18.6899 19.1925C17.6812 20.064 16.5106 20.7281 15.2451 21.1472C13.9677 21.5664 12.6195 21.7407 11.2775 21.6567Z" fill="#0E1D51"/>
<path d="M13.9617 2.32275C13.8693 2.32275 13.7807 2.35945 13.7153 2.42478C13.65 2.49012 13.6133 2.57872 13.6133 2.67112V5.84505C13.6133 5.93745 13.65 6.02604 13.7153 6.09137C13.7807 6.15672 13.8693 6.19341 13.9617 6.19341H18.129V10.3608C18.1293 10.4304 18.1503 10.4983 18.1894 10.5556C18.2284 10.6131 18.2838 10.6577 18.3484 10.6834C18.3872 10.7027 18.4324 10.7091 18.4775 10.7091H21.6513C21.7433 10.7075 21.8309 10.6703 21.8958 10.6053C21.9608 10.5404 21.9982 10.4526 21.9998 10.3608V2.32275H13.9617Z" fill="url(#paint0_linear_364_2475)"/>
<defs>
<linearGradient id="paint0_linear_364_2475" x1="13.6133" y1="6.51596" x2="21.9998" y2="6.51596" gradientUnits="userSpaceOnUse">
<stop stop-color="#7B7CF2"/>
<stop offset="1" stop-color="#2DCAED"/>
</linearGradient>
</defs>
</svg>

<svg xmlns="http://www.w3.org/2000/svg" width="24" height="24" fill="none" viewBox="0 0 24 24">
    <path fill="#0E1D51" d="M11.278 21.657a10.25 10.25 0 0 1-6.658-3.148A9.47 9.47 0 0 1 2 11.839a9.5 9.5 0 0 1 2.846-6.58c1.787-1.769 4.535-2.82 7.096-2.936a.36.36 0 0 1 .38.361v3.161a.35.35 0 0 1-.102.239.4.4 0 0 1-.252.11c-1.18.064-2.645.387-3.6 1.057A5.83 5.83 0 0 0 5.872 12c0 3.265 2.903 5.832 6.128 5.806 3.084-.025 5.935-2.348 6.129-5.464a.34.34 0 0 1 .11-.238.37.37 0 0 1 .257-.104h3.123a.39.39 0 0 1 .352.228.4.4 0 0 1 .028.14 9.5 9.5 0 0 1-.935 3.742 9.7 9.7 0 0 1-2.374 3.083 10.2 10.2 0 0 1-3.445 1.955c-1.277.42-2.625.594-3.967.51"/>
    <path fill="url(#CLH__a)" d="M13.962 2.323a.35.35 0 0 0-.349.348v3.174a.35.35 0 0 0 .349.348h4.167v4.168a.35.35 0 0 0 .22.322.3.3 0 0 0 .128.026h3.174a.354.354 0 0 0 .349-.348V2.323z"/>
    <defs>
        <linearGradient id="CLH__a" x1="13.613" x2="22" y1="6.516" y2="6.516" gradientUnits="userSpaceOnUse">
            <stop stop-color="#7B7CF2"/>
            <stop offset="1" stop-color="#2DCAED"/>
        </linearGradient>
    </defs>
</svg>
